apps/16/flash.svg

<?xml version="1.0" encoding="UTF-8"?>
<svg id="a" width="16" height="16" version="1.1" xmlns="http://www.w3.org/2000/svg" xmlns:cc="http://creativecommons.org/ns#" xmlns:dc="http://purl.org/dc/elements/1.1/" xmlns:rdf="http://www.w3.org/1999/02/22-rdf-syntax-ns#">
	<metadata id="c">
		<rdf:RDF>
			<cc:Work rdf:about="">
				<dc:format>image/svg+xml</dc:format>
				<dc:type rdf:resource="http://purl.org/dc/dcmitype/StillImage"/>
				<dc:title/>
			</cc:Work>
		</rdf:RDF>
	</metadata>
	<defs>
		<style id="current-color-scheme" type="text/css">.ColorScheme-Text {color:#090d11;}.ColorScheme-Background{color:#ffffff;}</style>
	</defs>
	<path id="b" d="m13 1c-1.9087 0-3.4099 0.9319-4.2813 2.0625-0.8712 1.1306-1.2673 2.3957-1.6562 3.3437l-0.875 2.0938c-0.4081 0.9949-0.7794 1.9783-1.25 2.5937-0.4706 0.6155-0.8655 0.9063-1.9375 0.9063v3c1.9281 0 3.4414-0.9546 4.3125-2.0938 0.7649-1.0003 1.1631-2.0549 1.5-2.9062h3.1875v-3h-1.9688c0.346-0.8358 0.6852-1.604 1.0625-2.0938 0.4585-0.595 0.815-0.9062 1.9063-0.9062z" style="fill:currentColor;fill-opacity:0.75;" class="ColorScheme-Text"/>
	<path id="d" d="m14-4.3939e-7c-3.283-5.2534e-4 -4.6407 0.36786-6.1875 2.375-1.0215 1.3256-1.4559 2.7244-1.8125 3.5938l-0.875 2.0938c-0.4161 1.0145-0.80495 1.9662-1.0938 2.3438-0.194 0.2539-0.2973 0.30395-0.375 0.34375-0.078 0.04-0.22425 0.24993-0.65625 0.25l-1.0001 1.6e-4v1 3l-1.11e-4 1.0002 1.0001-1.6e-4c2.3077-3.69e-4 4.1458-1.0029 5.2189-2.4064 0.6836-0.8939 0.97364-1.8389 1.2811-2.5936h3.5 1l1.11e-4 -1.0002v-3l-1.11e-4 -0.99984h-1-1.125c0.035-0.055 0.09411-0.36651 0.12511-0.40641 0.2005-0.2601 0.27734-0.46414 0.34364-0.49984 0.066-0.036 1.22-0.09375 1.6562-0.09375h1v-1-3-1zm0 1v3c-1.6443-0.095887-2.1499-0.085249-2.9062 0.90625-0.3773 0.4898-0.7165 1.258-1.0625 2.0938h2.9688v3h-4.1875c-0.3369 0.8513-0.7351 1.906-1.5 2.9062-0.8711 1.1392-2.3844 2.0938-4.3125 2.0938v-3c1.072 0 1.4669-0.29075 1.9375-0.90625 0.4706-0.6154 0.8419-1.5989 1.25-2.5938l0.875-2.0938c0.3889-0.948 0.78505-2.2132 1.6562-3.3438 0.82124-1.1608 2.6833-2.4022 5.2812-2.0625z" style="fill:currentColor;fill-opacity:0.5;" class="ColorScheme-Background"/>
</svg>

<?xml version="1.0" encoding="UTF-8" standalone="no"?>
<!-- Created with Inkscape (http://www.inkscape.org/) -->

<svg
   xmlns:dc="http://purl.org/dc/elements/1.1/"
   xmlns:cc="http://creativecommons.org/ns#"
   xmlns:rdf="http://www.w3.org/1999/02/22-rdf-syntax-ns#"
   xmlns:svg="http://www.w3.org/2000/svg"
   xmlns="http://www.w3.org/2000/svg"
   xmlns:sodipodi="http://sodipodi.sourceforge.net/DTD/sodipodi-0.dtd"
   xmlns:inkscape="http://www.inkscape.org/namespaces/inkscape"
   width="16"
   height="16"
   id="svg13094"
   version="1.1"
   inkscape:version="0.48.3.1 r9886"
   sodipodi:docname="adobeflashplugin.svg">
  <sodipodi:namedview
     id="base"
     pagecolor="#ffffff"
     bordercolor="#666666"
     borderopacity="1.0"
     inkscape:pageopacity="0.0"
     inkscape:pageshadow="2"
     inkscape:zoom="32"
     inkscape:cx="8.0194708"
     inkscape:cy="9.8272768"
     inkscape:document-units="px"
     inkscape:current-layer="layer1"
     showgrid="true"
     inkscape:snap-bbox="true"
     inkscape:bbox-paths="true"
     inkscape:bbox-nodes="true"
     inkscape:snap-bbox-edge-midpoints="true"
     inkscape:snap-bbox-midpoints="true"
     inkscape:object-paths="true"
     inkscape:snap-intersection-paths="true"
     inkscape:object-nodes="true"
     inkscape:snap-smooth-nodes="true"
     inkscape:snap-midpoints="true"
     inkscape:snap-object-midpoints="true"
     inkscape:snap-center="true"
     showguides="false"
     inkscape:guide-bbox="true"
     inkscape:window-width="1920"
     inkscape:window-height="1033"
     inkscape:window-x="-10"
     inkscape:window-y="25"
     inkscape:window-maximized="1"
     inkscape:snap-global="true"
     fit-margin-top="0"
     fit-margin-left="0"
     fit-margin-right="0"
     fit-margin-bottom="0"
     showborder="true"
     inkscape:showpageshadow="false">
    <sodipodi:guide
       orientation="0,1"
       position="-20.000165,933.61275"
       id="guide4700" />
    <sodipodi:guide
       orientation="0,1"
       position="581.7187,331.89377"
       id="guide4702" />
    <sodipodi:guide
       orientation="1,0"
       position="581.71882,492.70384"
       id="guide4706" />
    <sodipodi:guide
       orientation="1,0"
       position="59.999836,933.61275"
       id="guide4708" />
    <sodipodi:guide
       orientation="0,1"
       position="-20.000165,853.61285"
       id="guide4710" />
    <sodipodi:guide
       orientation="0,1"
       position="541.7187,411.89369"
       id="guide4712" />
    <sodipodi:guide
       orientation="1,0"
       position="501.7187,411.89369"
       id="guide4714" />
    <inkscape:grid
       type="xygrid"
       id="grid3216"
       empspacing="5"
       visible="true"
       enabled="true"
       snapvisiblegridlinesonly="true"
       originx="-20.000111px"
       originy="-216.00016px" />
    <sodipodi:guide
       orientation="-0.70710664,0.70710692"
       position="8.9998902,-243.00016"
       id="guide3847" />
    <sodipodi:guide
       orientation="0.70710594,0.70710762"
       position="9.9998902,-242.00016"
       id="guide3849" />
    <sodipodi:guide
       orientation="-0.70710681,0.70710676"
       position="11.99989,-209.00016"
       id="guide3851" />
  </sodipodi:namedview>
  <defs
     id="defs13096" />
  <metadata
     id="metadata13099">
    <rdf:RDF>
      <cc:Work
         rdf:about="">
        <dc:format>image/svg+xml</dc:format>
        <dc:type
           rdf:resource="http://purl.org/dc/dcmitype/StillImage" />
        <dc:title />
      </cc:Work>
    </rdf:RDF>
  </metadata>
  <g
     transform="translate(9384.3076,-4846.1987)"
     id="layer1"
     inkscape:groupmode="layer"
     inkscape:label="Camada 1">
    <path
       id="path2994"
       d="m -9371.3076,4847.1987 c -1.9087,0 -3.4099,0.9319 -4.2813,2.0625 -0.8712,1.1306 -1.2673,2.3957 -1.6562,3.3437 l -0.875,2.0938 c -0.4081,0.9949 -0.7794,1.9783 -1.25,2.5937 -0.4706,0.6155 -0.8655,0.9063 -1.9375,0.9063 l 0,3 c 1.9281,0 3.4414,-0.9546 4.3125,-2.0938 0.7649,-1.0003 1.1631,-2.0549 1.5,-2.9062 l 3.1875,0 0,-3 -1.9688,0 c 0.346,-0.8358 0.6852,-1.604 1.0625,-2.0938 0.4585,-0.595 0.815,-0.9062 1.9063,-0.9062 l 0,-3 z"
       style="font-size:medium;font-style:normal;font-variant:normal;font-weight:normal;font-stretch:normal;text-indent:0;text-align:start;text-decoration:none;line-height:normal;letter-spacing:normal;word-spacing:normal;text-transform:none;direction:ltr;block-progression:tb;writing-mode:lr-tb;text-anchor:start;baseline-shift:baseline;color:#000000;fill:#27303a;fill-opacity:0.753280819999999968;stroke:none;stroke-width:3;marker:none;visibility:visible;display:inline;overflow:visible;enable-background:accumulate;font-family:Sans;-inkscape-font-specification:Sans"
       inkscape:connector-curvature="0" />
    <path
       style="font-size:medium;font-style:normal;font-variant:normal;font-weight:normal;font-stretch:normal;text-indent:0;text-align:start;text-decoration:none;line-height:normal;letter-spacing:normal;word-spacing:normal;text-transform:none;direction:ltr;block-progression:tb;writing-mode:lr-tb;text-anchor:start;baseline-shift:baseline;color:#000000;fill:#f1f3f5;fill-opacity:0.90288714000000003;fill-rule:nonzero;stroke:none;stroke-width:2;marker:none;visibility:visible;display:inline;overflow:visible;enable-background:accumulate;font-family:Sans;-inkscape-font-specification:Sans"
       d="M 14,0 C 10.716985,-5.253407e-4 9.3593408,0.36786357 7.8125,2.375 6.791,3.7006 6.3566,5.09945 6,5.96875 L 5.125,8.0625 C 4.7089,9.077 4.32005,10.02865 4.03125,10.40625 3.83725,10.66015 3.73395,10.7102 3.65625,10.75 3.57825,10.79 3.432,10.999931 3,11 l -1.000111,1.6e-4 0,1 0,3 -1.11e-4,1.00016 1.000111,-1.6e-4 c 2.3077,-3.69e-4 4.145761,-1.00291 5.218861,-2.40641 0.6836,-0.8939 0.973639,-1.83889 1.281139,-2.59359 l 3.5,0 1,0 L 14,10 l 0,-3 -1.11e-4,-0.99984 -1,0 -1.125,0 C 11.909889,5.94516 11.969,5.63365 12,5.59375 c 0.2005,-0.2601 0.277339,-0.46414 0.343639,-0.49984 0.066,-0.036 1.21995,-0.09375 1.65625,-0.09375 l 1,0 0,-1 0,-3 0,-1 z m 0,1 0,3 C 12.355741,3.904113 11.850143,3.914751 11.09375,4.90625 10.71645,5.39605 10.37725,6.1642 10.03125,7 L 13,7 l 0,3 -4.1875,0 c -0.3369,0.8513 -0.7351,1.90595 -1.5,2.90625 C 6.4414,14.04545 4.9281,15 3,15 L 3,12 C 4.072,12 4.4669,11.70925 4.9375,11.09375 5.4081,10.47835 5.7794,9.4949 6.1875,8.5 L 7.0625,6.40625 C 7.4514,5.45825 7.84755,4.1931 8.71875,3.0625 9.5399891,1.901715 11.40201,0.66028323 14,1 z"
       transform="translate(-9384.3076,4846.1987)"
       id="path3784"
       inkscape:connector-curvature="0"
       sodipodi:nodetypes="scccccsccccscccccccccccsccccscccccccsccccccc" />
  </g>
</svg>
